actions/22x22-dark/view-calendar-month.svg

<svg xmlns="http://www.w3.org/2000/svg" viewBox="0 0 22 22">
 <defs id="defs3051">
   <style type="text/css" id="current-color-scheme">
     .ColorScheme-Text {
       color:#f2f2f2;
     }
     </style>
 </defs>
   <path
      style="fill:currentColor;fill-opacity:1;stroke:none"
      d="m4 3c-.5540164 0-1 .4459836-1 1v14c0 .554016.4459836 1 1 1h14c .554016 0 1-.445984 1-1v-14c0-.5540164-.445984-1-1-1z"
      class="ColorScheme-Text" />
 <defs id="defs3051">
   <style type="text/css" id="current-color-scheme">
     .ColorScheme-Text {
       color:#32c671;
     }
     </style>
 </defs>
   <path
      style="fill:currentColor;fill-opacity:1;stroke:none"
      d="m7.1191406 6a1.2697625 1.2697625 0 0 0 -1.2695312 1.2695312 1.2697625 1.2697625 0 0 0 1.2695312 1.2714844 1.2697625 1.2697625 0 0 0 1.2695313-1.2714844 1.2697625 1.2697625 0 0 0 -1.2695313-1.2695312zm3.8730474 0a1.2697625 1.2697625 0 0 0 -1.2695318 1.2695312 1.2697625 1.2697625 0 0 0 1.2695318 1.2714844 1.2697625 1.2697625 0 0 0 1.269531-1.2714844 1.2697625 1.2697625 0 0 0 -1.269531-1.2695312zm3.888671 0a1.2697625 1.2697625 0 0 0 -1.269531 1.2695312 1.2697625 1.2697625 0 0 0 1.269531 1.2695313 1.2697625 1.2697625 0 0 0 1.269532-1.2695313 1.2697625 1.2697625 0 0 0 -1.269532-1.2695312zm0 3.6972656a1.2697625 1.2697625 0 0 0 -1.269531 1.2714844 1.2697625 1.2697625 0 0 0 1.269531 1.269531 1.2697625 1.2697625 0 0 0 1.269532-1.269531 1.2697625 1.2697625 0 0 0 -1.269532-1.2714844zm-7.7617184.0019532a1.2697625 1.2697625 0 0 0 -1.2695312 1.2695312 1.2697625 1.2697625 0 0 0 1.2695312 1.269531 1.2697625 1.2697625 0 0 0 1.2695313-1.269531 1.2697625 1.2697625 0 0 0 -1.2695313-1.2695312zm3.8730474 0a1.2697625 1.2697625 0 0 0 -1.2695318 1.2695312 1.2697625 1.2697625 0 0 0 1.2695318 1.269531 1.2697625 1.2697625 0 0 0 1.269531-1.269531 1.2697625 1.2697625 0 0 0 -1.269531-1.2695312zm-3.8730474 3.7617192a1.2697625 1.2697625 0 0 0 -1.2695312 1.269531 1.2697625 1.2697625 0 0 0 1.2695312 1.269531 1.2697625 1.2697625 0 0 0 1.2695313-1.269531 1.2697625 1.2697625 0 0 0 -1.2695313-1.269531z"
      class="ColorScheme-Text" />
</svg>

<svg xmlns="http://www.w3.org/2000/svg" viewBox="0 0 22 22">
  <defs id="defs3051">
    <style type="text/css" id="current-color-scheme">
      .ColorScheme-Text {
        color:#f2f2f2;
      }
      .ColorScheme-Highlight {
        color:#3daee9;
      }
      </style>
  </defs>
 <path 
     style="fill:currentColor;fill-opacity:1;stroke:none" 
     d="M 4 3 C 3.4459836 3 3 3.4459836 3 4 L 3 18 C 3 18.554016 3.4459836 19 4 19 L 18 19 C 18.554016 19 19 18.554016 19 18 L 19 4 C 19 3.4459836 18.554016 3 18 3 L 4 3 z "
     class="ColorScheme-Text"
     />
 <path 
     style="opacity:1;fill:#32c671;fill-opacity:1;stroke:none"
     d="M 7.1191406 6 A 1.2697625 1.2697625 0 0 0 5.8496094 7.2695312 A 1.2697625 1.2697625 0 0 0 7.1191406 8.5410156 A 1.2697625 1.2697625 0 0 0 8.3886719 7.2695312 A 1.2697625 1.2697625 0 0 0 7.1191406 6 z M 10.992188 6 A 1.2697625 1.2697625 0 0 0 9.7226562 7.2695312 A 1.2697625 1.2697625 0 0 0 10.992188 8.5410156 A 1.2697625 1.2697625 0 0 0 12.261719 7.2695312 A 1.2697625 1.2697625 0 0 0 10.992188 6 z M 14.880859 6 A 1.2697625 1.2697625 0 0 0 13.611328 7.2695312 A 1.2697625 1.2697625 0 0 0 14.880859 8.5390625 A 1.2697625 1.2697625 0 0 0 16.150391 7.2695312 A 1.2697625 1.2697625 0 0 0 14.880859 6 z M 14.880859 9.6972656 A 1.2697625 1.2697625 0 0 0 13.611328 10.96875 A 1.2697625 1.2697625 0 0 0 14.880859 12.238281 A 1.2697625 1.2697625 0 0 0 16.150391 10.96875 A 1.2697625 1.2697625 0 0 0 14.880859 9.6972656 z M 7.1191406 9.6992188 A 1.2697625 1.2697625 0 0 0 5.8496094 10.96875 A 1.2697625 1.2697625 0 0 0 7.1191406 12.238281 A 1.2697625 1.2697625 0 0 0 8.3886719 10.96875 A 1.2697625 1.2697625 0 0 0 7.1191406 9.6992188 z M 10.992188 9.6992188 A 1.2697625 1.2697625 0 0 0 9.7226562 10.96875 A 1.2697625 1.2697625 0 0 0 10.992188 12.238281 A 1.2697625 1.2697625 0 0 0 12.261719 10.96875 A 1.2697625 1.2697625 0 0 0 10.992188 9.6992188 z M 7.1191406 13.460938 A 1.2697625 1.2697625 0 0 0 5.8496094 14.730469 A 1.2697625 1.2697625 0 0 0 7.1191406 16 A 1.2697625 1.2697625 0 0 0 8.3886719 14.730469 A 1.2697625 1.2697625 0 0 0 7.1191406 13.460938 z "
     />
</svg>
